packages/katcn/src/icons/svg/layout10.svg

<svg width="24" height="25" viewBox="0 0 24 25" fill="none" xmlns="http://www.w3.org/2000/svg">
<path d="M17.7 2.40002H6.3C3.9 2.40002 2 4.30002 2 6.70002V18.2C2 20.5 3.9 22.4 6.3 22.4H17.8C20.2 22.4 22.1 20.5 22.1 18.1V6.70002C22 4.30002 20.1 2.40002 17.7 2.40002ZM9.7 14.7V10.1H14.2V14.6H9.7V14.7ZM14.3 16.7V20.4H9.7V16.7H14.3ZM4 10.1H7.7V14.6H4V10.1ZM9.7 8.10002V4.40002H14.2V8.10002H9.7ZM16.3 10.1H20V14.6H16.3V10.1ZM20 6.70002V8.20002H16.3V4.40002H17.8C19 4.40002 20 5.40002 20 6.70002ZM6.3 4.40002H7.8V8.10002H4V6.70002C4 5.40002 5 4.40002 6.3 4.40002ZM4 18.1V16.6H7.7V20.4H6.3C5 20.4 4 19.4 4 18.1ZM17.7 20.4H16.2V16.7H20V18.2C20 19.4 19 20.4 17.7 20.4Z" fill="black"/>
</svg>

<svg xmlns="http://www.w3.org/2000/svg" fill="none" viewBox="0 0 24 25"><path fill="#000" d="M17.7 2.4H6.3C3.9 2.4 2 4.3 2 6.7v11.5c0 2.3 1.9 4.2 4.3 4.2h11.5c2.4 0 4.3-1.9 4.3-4.3V6.7c-.1-2.4-2-4.3-4.4-4.3m-8 12.3v-4.6h4.5v4.5H9.7zm4.6 2v3.7H9.7v-3.7zM4 10.1h3.7v4.5H4zm5.7-2V4.4h4.5v3.7zm6.6 2H20v4.5h-3.7zM20 6.7v1.5h-3.7V4.4h1.5c1.2 0 2.2 1 2.2 2.3M6.3 4.4h1.5v3.7H4V6.7c0-1.3 1-2.3 2.3-2.3M4 18.1v-1.5h3.7v3.8H6.3c-1.3 0-2.3-1-2.3-2.3m13.7 2.3h-1.5v-3.7H20v1.5c0 1.2-1 2.2-2.3 2.2"/></svg>
